svg/document-code.svg

<svg xmlns="http://www.w3.org/2000/svg" width="24" height="24" viewBox="0 0 24 24">
	<g fill="none" stroke="currentColor" stroke-width="2" stroke-linecap="round" stroke-linejoin="round">
		<path d="M13 3l6 6v12h-14v-18h8" stroke-dasharray="64" stroke-dashoffset="64">
			<animate attributeName="stroke-dashoffset" values="64;0" dur="0.6s" fill="freeze" />
		</path>
		<path d="M12.5 3v5.5h6.5" stroke-width="1" stroke-dasharray="16" stroke-dashoffset="16">
			<animate attributeName="stroke-dashoffset" values="16;0" begin="0.7s" dur="0.2s" fill="freeze" />
		</path>
		<path d="M10 13l-2 2l2 2" stroke-dasharray="8" stroke-dashoffset="8">
			<animate attributeName="stroke-dashoffset" values="8;0" begin="0.9s" dur="0.2s" fill="freeze" />
		</path>
		<path d="M14 13l2 2l-2 2" stroke-dasharray="8" stroke-dashoffset="8">
			<animate attributeName="stroke-dashoffset" values="8;0" begin="1.1s" dur="0.2s" fill="freeze" />
		</path>
	</g>
</svg>

<svg xmlns="http://www.w3.org/2000/svg" width="24" height="24" viewBox="0 0 24 24">
	<g fill="none" stroke="currentColor" stroke-linecap="round" stroke-linejoin="round">
		<path d="M13 3L19 9V21H5V3H13" stroke-width="2" stroke-dasharray="64" stroke-dashoffset="64">
			<animate attributeName="stroke-dashoffset" values="64;0" dur="0.6s" fill="freeze" />
		</path>
		<path d="M12.5 3V8.5H19" stroke-dasharray="14" stroke-dashoffset="14">
			<animate attributeName="stroke-dashoffset" values="14;0" begin="0.7s" dur="0.2s" fill="freeze" />
		</path>
		<g stroke-width="2" stroke-dasharray="8">
			<path d="M10 13L8 15L10 17" stroke-dashoffset="8">
				<animate attributeName="stroke-dashoffset" values="8;0" begin="1s" dur="0.2s" fill="freeze" />
			</path>
			<path d="M14 13L16 15L14 17" stroke-dashoffset="8">
				<animate attributeName="stroke-dashoffset" values="8;0" begin="1.2s" dur="0.2s" fill="freeze" />
			</path>
		</g>
	</g>
</svg>
